X:1
T:You Will Outshine the Sun
T:You Will Outshine the Sun
T:Harry Monroe, arr. Peter P. Bilhorn
T:Melvin Ernest Trotter, 1904
T:Public Domain Courtesy of the Cyber Hymnal™
T:Public Domain Courtesy of the Cyber Hymnal™
C:Harry Monroe, arr. Peter P. Bilhorn
Z:Public Domain
Z:Courtesy of the Cyber Hymnal™
%%score ( 1 2 ) 3
L:1/8
Q:1/4=90
M:4/4
K:G
V:1 treble 
V:2 treble 
V:3 bass 
V:1
 !fermata![Gd][Gd] | [Gd][GB][GB][GB] [GB][GB][DA][DG] | [GB]<[GB] [FA] [DG]3 [DF][DG] | %3
w: 1.~If you’ll|give your heart to Je- sus, You will|out- shine the sun, You will|
w: 2.~If you’ll|do as Je- sus bids you, You will|out- shine the sun, You will|
w: 3.~If you’ll|win a soul for Je- sus, You will|out- shine the sun, You will|
w: 4.~If the|Spir- it dwells with- in you, You will|out- shine the sun, You will|
w: 5.~If you’ll|on- ly stop your growl- ing, You will|out- shine the sun, You will|
w: 6.~If you’ll|on- ly stop your scowl- ing, You will|out- shine the sun, You will|
w: 7.~If you’ll|fol- low in His foot- steps, You will|out- shine the sun, You will|
w: 8.~If you’ll|free- ly give to Je- sus, You will|out- shine the sun, You will|
 [FA]<[FA] [FA] [FA]3 [EG][FA] | [GB]<[GB] [FA] [DG]3 [Gd]>[Gd] | %5
w: out- shine the sun, You will|out- shine the sun; If you’ll|
w: out- shine the sun, You will|out- shine the sun; If you’ll|
w: out- shine the sun, You will|out- shine the sun; If you’ll|
w: out- shine the sun, You will|out- shine the sun; If the|
w: out- shine the sun, You will|out- shine the sun; If you’ll|
w: out- shine the sun, You will|out- shine the sun; If you’ll|
w: out- shine the sun, You will|out- shine the sun; If you’ll|
w: out- shine the sun, You will|out- shine the sun; If you’ll|
 [Gd][GB][GB][GB] [GB][GB][DA][DG] | [GB]<[GB] [FA] [DG]3 G2 | [EA]>[EA] [EA]>[Gc] [GB]2 [FA]2 | %8
w: give your heart to Je- sus, You will|out- shine the sun, And|walk the gol- den streets on|
w: do as Je- sus bids you, You will|out- shine the sun, And|walk the gol- den streets on|
w: win a soul for Je- sus, You will|out- shine the sun, And|walk the gol- den streets on|
w: Spir- it dwells with- in you, You will|out- shine the sun, And|walk the gol- den streets on|
w: on- ly stop your growl- ing, You will|out- shine the sun, And|walk the gol- den streets on|
w: on- ly stop your scowl- ing, You will|out- shine the sun, And|walk the gol- den streets on|
w: fol- low in His foot- steps, You will|out- shine the sun, And|walk the gol- den streets on|
w: free- ly give to Je- sus, You will|out- shine the sun, And|walk the gol- den streets on|
 [DG]6 |] %9
w: high.|
w: high.|
w: high.|
w: high.|
w: high.|
w: high.|
w: high.|
w: high.|
V:2
 x2 | x8 | x8 | x8 | x8 | x8 | x6 G2 | x8 | x6 |] %9
V:3
 !fermata![G,B,][G,B,] | [G,B,][G,D][G,D][G,D] [G,D][G,D][F,C][G,B,] | %2
 [D,D]<[D,D] [D,C] [G,,G,B,]3 [A,C][G,B,] | [D,C]<[D,C] [D,C] [D,C]3 [E,B,][D,D] | %4
 [G,D]<[G,D] [D,C] [G,B,]3 [G,B,]>[G,B,] | [G,B,][G,D][G,D][G,D] [G,D][G,D][F,C][G,B,] | %6
 [D,D]<[D,D] [D,C] [G,,G,B,]3 [B,,D]2 | [C,C]>[C,C] [C,C]>[A,,E] [D,D]2 [D,C]2 | [G,,G,B,]6 |] %9

